epam-assets/icon-sources/18/database-settings.svg

<svg width="18" height="18" viewBox="0 0 18 18" fill="none" xmlns="http://www.w3.org/2000/svg">
<g id="18/database-settings">
<path id="icon" fill-rule="evenodd" clip-rule="evenodd" d="M8.25 11.25C4.935 11.25 2.25 9.9075 2.25 8.25V6C2.25 7.6575 4.935 9 8.25 9C11.565 9 14.25 7.6575 14.25 6V8.25V9C12.7539 9.06243 11.2557 9.85927 10.4844 11.0353C9.7939 11.1738 9.03983 11.25 8.25 11.25ZM9.83115 12.6448C9.77789 12.9217 9.75 13.2076 9.75 13.5C9.75 13.9799 9.82512 14.4422 9.96423 14.8759C9.42112 14.9566 8.84573 15 8.25 15C4.935 15 2.25 13.6575 2.25 12V9.75C2.25 11.4075 4.935 12.75 8.25 12.75C8.79731 12.75 9.32744 12.7134 9.83115 12.6448ZM8.25 1.5C11.565 1.5 14.25 2.8425 14.25 4.5C14.25 6.1575 11.565 7.5 8.25 7.5C4.935 7.5 2.25 6.1575 2.25 4.5C2.25 2.8425 4.935 1.5 8.25 1.5ZM13.3333 15.5554C13.1899 15.4914 13.0545 15.4128 12.9289 15.3215L11.9332 15.4871L11.3707 14.5129L12.012 13.7334C12.0041 13.6567 12 13.5788 12 13.5C12 13.4212 12.0041 13.3433 12.012 13.2666L11.3707 12.4871L11.9332 11.5129L12.9289 11.6785C13.0545 11.5872 13.1899 11.5086 13.3333 11.4446L13.6875 10.5H14.8125L15.1667 11.4446C15.3101 11.5086 15.4455 11.5872 15.5711 11.6785L16.5668 11.5129L17.1293 12.4871L16.488 13.2666C16.4959 13.3433 16.5 13.4212 16.5 13.5C16.5 13.5788 16.4959 13.6567 16.488 13.7334L17.1293 14.5129L16.5668 15.4871L15.5711 15.3215C15.4455 15.4128 15.3101 15.4914 15.1667 15.5554L14.8125 16.5H13.6875L13.3333 15.5554ZM14.25 14.25C14.6642 14.25 15 13.9142 15 13.5C15 13.0858 14.6642 12.75 14.25 12.75C13.8358 12.75 13.5 13.0858 13.5 13.5C13.5 13.9142 13.8358 14.25 14.25 14.25Z" fill="#6C6F80"/>
</g>
</svg>

<svg xmlns="http://www.w3.org/2000/svg" width="18" height="18" fill="none" viewBox="0 0 18 18">
  <path fill="#6C6F80" fill-rule="evenodd" d="M8.25 11.25c-3.315 0-6-1.342-6-3V6c0 1.657 2.685 3 6 3s6-1.343 6-3v3c-1.496.062-2.994.86-3.766 2.035-.69.139-1.444.215-2.234.215Zm1.581 1.395a4.524 4.524 0 0 0 .133 2.23c-.543.082-1.118.125-1.714.125-3.315 0-6-1.342-6-3V9.75c0 1.658 2.685 3 6 3 .547 0 1.077-.037 1.581-.105ZM8.25 1.5c3.315 0 6 1.342 6 3 0 1.657-2.685 3-6 3s-6-1.343-6-3c0-1.658 2.685-3 6-3Zm5.083 14.055a2.242 2.242 0 0 1-.404-.233l-.996.165-.562-.974.641-.78a2.278 2.278 0 0 1 0-.466l-.641-.78.562-.974.996.165c.126-.09.26-.17.404-.233l.354-.945h1.126l.354.945c.143.064.278.142.404.233l.996-.165.562.974-.641.78a2.278 2.278 0 0 1 0 .466l.641.78-.562.974-.996-.165c-.126.09-.26.17-.404.233l-.354.945h-1.126l-.354-.945Zm.917-1.305a.75.75 0 1 0 0-1.5.75.75 0 0 0 0 1.5Z" clip-rule="evenodd"/>
</svg>
